X: 2
T:Captain O'Kane
M:6/8
L:1/8
C:Turlaugh O'Carolan
R:waltz
B:after O'Neill's Music of Ireland
K:G
(F/2D/2)| "Em"(B,EF) (G2 F/2E/2) | "D"(F/2G/2A/2G/2F/2E/2) (DEF) |"Em" (
GBG) (B/2A/2G/2F/2E/2D/2)| "Em"(B,G).G G2 (G/2D/2) |!
"Em"(B,EF) (G2 F/2E/2)| "D"(F/2G/2A/2G/2F/2E/2) (DEF) | "Em"(GB).B (B/2A
/2G/2F/2E/2D/2)| "Em"(B,E).E E2||!
E/2/F/2| "G"(GB).B B2 (A/2G/2) |"D"(FA).A A2 (d/2c/2)| "Em"(Be^d) (e>fg)
 |"Em"(Be^d) e2 (e/2f/2) |!
"G"(g>fe) (d>cB) | "D"(AF).d (DEF) |"Em"(GBG) (B/2A/2G/2F/2E/2D/2) | "Em
"(B,E).E E2||
% 1 measure 6/8 = 2 measures 3/4 !
% Output from ABC2Win  Version 2.1 i on 11/28/2004
